static/img/kroki/a77a95191c052b72b6ae5fece952a97a.svg

<?xml version="1.0" encoding="us-ascii" standalone="no"?><svg xmlns="http://www.w3.org/2000/svg" xmlns:xlink="http://www.w3.org/1999/xlink" contentStyleType="text/css" height="901px" preserveAspectRatio="none" style="width:324px;height:901px;" version="1.1" viewBox="0 0 324 901" width="324px" zoomAndPan="magnify"><defs/><g><!--class aws_iam_group--><g id="elem_aws_iam_group"><rect codeLine="22" fill="#3D176E" height="100.3828" id="aws_iam_group" rx="2.5" ry="2.5" style="stroke:#000D19;stroke-width:0.5;" width="303" x="11" y="633.84"/><ellipse cx="87.75" cy="653.7345" fill="#ADD1B2" rx="11" ry="11" style="stroke:#181818;stroke-width:1.0;"/><path d="M90.7188,659.3752 Q90.1406,659.672 89.5,659.8127 Q88.8594,659.9689 88.1563,659.9689 Q85.6563,659.9689 84.3281,658.3283 Q83.0156,656.672 83.0156,653.547 Q83.0156,650.422 84.3281,648.7658 Q85.6563,647.1095 88.1563,647.1095 Q88.8594,647.1095 89.5,647.2658 Q90.1563,647.422 90.7188,647.7189 L90.7188,650.4377 Q90.0938,649.8595 89.5,649.5939 Q88.9063,649.3127 88.2813,649.3127 Q86.9375,649.3127 86.25,650.3908 Q85.5625,651.4533 85.5625,653.547 Q85.5625,655.6408 86.25,656.7189 Q86.9375,657.7814 88.2813,657.7814 Q88.9063,657.7814 89.5,657.5158 Q90.0938,657.2345 90.7188,656.6564 L90.7188,659.3752 Z " fill="#000000"/><text fill="#D9B8FF" font-family="Helvetica" font-size="17" lengthAdjust="spacing" textLength="131" x="113.25" y="659.6198">aws_iam_group</text><line style="stroke:#000D19;stroke-width:0.5;" x1="12" x2="313" y1="673.6291" y2="673.6291"/><text fill="#D9B8FF" font-family="sans-serif" font-size="14" font-weight="bold" lengthAdjust="spacing" textLength="114" x="22" y="695.6242">group_policies</text><text fill="#D9B8FF" font-family="sans-serif" font-size="14" lengthAdjust="spacing" textLength="167" x="136" y="695.6242">: aws_iam_policy_detail[]</text><text fill="#D9B8FF" font-family="sans-serif" font-size="14" font-weight="bold" lengthAdjust="spacing" textLength="35" x="22" y="721.9211">path</text><text fill="#D9B8FF" font-family="sans-serif" font-size="14" lengthAdjust="spacing" textLength="48" x="57" y="721.9211">: string</text></g><!--class aws_iam_policy_detail--><g id="elem_aws_iam_policy_detail"><rect codeLine="26" fill="#3D176E" height="100.3828" id="aws_iam_policy_detail" rx="2.5" ry="2.5" style="stroke:#000D19;stroke-width:0.5;" width="310" x="7.5" y="794.23"/><ellipse cx="59.75" cy="814.1245" fill="#ADD1B2" rx="11" ry="11" style="stroke:#181818;stroke-width:1.0;"/><path d="M62.7188,819.7652 Q62.1406,820.062 61.5,820.2027 Q60.8594,820.3589 60.1563,820.3589 Q57.6563,820.3589 56.3281,818.7183 Q55.0156,817.062 55.0156,813.937 Q55.0156,810.812 56.3281,809.1558 Q57.6563,807.4995 60.1563,807.4995 Q60.8594,807.4995 61.5,807.6558 Q62.1563,807.812 62.7188,808.1089 L62.7188,810.8277 Q62.0938,810.2495 61.5,809.9839 Q60.9063,809.7027 60.2813,809.7027 Q58.9375,809.7027 58.25,810.7808 Q57.5625,811.8433 57.5625,813.937 Q57.5625,816.0308 58.25,817.1089 Q58.9375,818.1714 60.2813,818.1714 Q60.9063,818.1714 61.5,817.9058 Q62.0938,817.6245 62.7188,817.0464 L62.7188,819.7652 Z " fill="#000000"/><text fill="#D9B8FF" font-family="Helvetica" font-size="17" lengthAdjust="spacing" textLength="187" x="85.25" y="820.0098">aws_iam_policy_detail</text><line style="stroke:#000D19;stroke-width:0.5;" x1="8.5" x2="316.5" y1="834.0191" y2="834.0191"/><text fill="#D9B8FF" font-family="sans-serif" font-size="14" font-weight="bold" lengthAdjust="spacing" textLength="132" x="18.5" y="856.0142">policy_document</text><text fill="#D9B8FF" font-family="sans-serif" font-size="14" lengthAdjust="spacing" textLength="156" x="150.5" y="856.0142">: dictionary[string, any]</text><text fill="#D9B8FF" font-family="sans-serif" font-size="14" font-weight="bold" lengthAdjust="spacing" textLength="96" x="18.5" y="882.3111">policy_name</text><text fill="#D9B8FF" font-family="sans-serif" font-size="14" lengthAdjust="spacing" textLength="48" x="114.5" y="882.3111">: string</text></g><!--class aws_resource--><g id="elem_aws_resource"><rect codeLine="30" fill="#3D176E" height="74.0859" id="aws_resource" rx="2.5" ry="2.5" style="stroke:#000D19;stroke-width:0.5;" width="155" x="7" y="438.76"/><ellipse cx="22" cy="458.6545" fill="#ADD1B2" rx="11" ry="11" style="stroke:#181818;stroke-width:1.0;"/><path d="M24.9688,464.2952 Q24.3906,464.592 23.75,464.7327 Q23.1094,464.8889 22.4063,464.8889 Q19.9063,464.8889 18.5781,463.2483 Q17.2656,461.592 17.2656,458.467 Q17.2656,455.342 18.5781,453.6858 Q19.9063,452.0295 22.4063,452.0295 Q23.1094,452.0295 23.75,452.1858 Q24.4063,452.342 24.9688,452.6389 L24.9688,455.3577 Q24.3438,454.7795 23.75,454.5139 Q23.1563,454.2327 22.5313,454.2327 Q21.1875,454.2327 20.5,455.3108 Q19.8125,456.3733 19.8125,458.467 Q19.8125,460.5608 20.5,461.6389 Q21.1875,462.7014 22.5313,462.7014 Q23.1563,462.7014 23.75,462.4358 Q24.3438,462.1545 24.9688,461.5764 L24.9688,464.2952 Z " fill="#000000"/><text fill="#D9B8FF" font-family="Helvetica" font-size="17" lengthAdjust="spacing" textLength="113" x="41" y="464.5398">aws_resource</text><line style="stroke:#000D19;stroke-width:0.5;" x1="8" x2="161" y1="478.5491" y2="478.5491"/><text fill="#D9B8FF" font-family="sans-serif" font-size="14" font-weight="bold" lengthAdjust="spacing" textLength="26" x="18" y="500.5442">arn</text><text fill="#D9B8FF" font-family="sans-serif" font-size="14" lengthAdjust="spacing" textLength="48" x="44" y="500.5442">: string</text></g><!--class group--><g id="elem_group"><rect codeLine="33" fill="#3D176E" height="39.7891" id="group" rx="2.5" ry="2.5" style="stroke:#000D19;stroke-width:0.5;" width="90" x="197.5" y="455.91"/><ellipse cx="212.5" cy="475.8045" fill="#ADD1B2" rx="11" ry="11" style="stroke:#181818;stroke-width:1.0;"/><path d="M215.4688,481.4452 Q214.8906,481.742 214.25,481.8827 Q213.6094,482.0389 212.9063,482.0389 Q210.4063,482.0389 209.0781,480.3983 Q207.7656,478.742 207.7656,475.617 Q207.7656,472.492 209.0781,470.8358 Q210.4063,469.1795 212.9063,469.1795 Q213.6094,469.1795 214.25,469.3358 Q214.9063,469.492 215.4688,469.7889 L215.4688,472.5077 Q214.8438,471.9295 214.25,471.6639 Q213.6563,471.3827 213.0313,471.3827 Q211.6875,471.3827 211,472.4608 Q210.3125,473.5233 210.3125,475.617 Q210.3125,477.7108 211,478.7889 Q211.6875,479.8514 213.0313,479.8514 Q213.6563,479.8514 214.25,479.5858 Q214.8438,479.3045 215.4688,478.7264 L215.4688,481.4452 Z " fill="#000000"/><text fill="#D9B8FF" font-family="Helvetica" font-size="17" lengthAdjust="spacing" textLength="48" x="231.5" y="481.6898">group</text></g><!--class resource--><g id="elem_resource"><rect codeLine="35" fill="#3D176E" height="310.7578" id="resource" rx="2.5" ry="2.5" style="stroke:#000D19;stroke-width:0.5;" width="227" x="49" y="7"/><ellipse cx="117.75" cy="26.8945" fill="#ADD1B2" rx="11" ry="11" style="stroke:#181818;stroke-width:1.0;"/><path d="M120.7188,32.5352 Q120.1406,32.832 119.5,32.9727 Q118.8594,33.1289 118.1563,33.1289 Q115.6563,33.1289 114.3281,31.4883 Q113.0156,29.832 113.0156,26.707 Q113.0156,23.582 114.3281,21.9258 Q115.6563,20.2695 118.1563,20.2695 Q118.8594,20.2695 119.5,20.4258 Q120.1563,20.582 120.7188,20.8789 L120.7188,23.5977 Q120.0938,23.0195 119.5,22.7539 Q118.9063,22.4727 118.2813,22.4727 Q116.9375,22.4727 116.25,23.5508 Q115.5625,24.6133 115.5625,26.707 Q115.5625,28.8008 116.25,29.8789 Q116.9375,30.9414 118.2813,30.9414 Q118.9063,30.9414 119.5,30.6758 Q120.0938,30.3945 120.7188,29.8164 L120.7188,32.5352 Z " fill="#000000"/><text fill="#D9B8FF" font-family="Helvetica" font-size="17" lengthAdjust="spacing" textLength="71" x="143.25" y="32.7798">resource</text><line style="stroke:#000D19;stroke-width:0.5;" x1="50" x2="275" y1="46.7891" y2="46.7891"/><text fill="#D9B8FF" font-family="sans-serif" font-size="14" font-weight="bold" lengthAdjust="spacing" textLength="29" x="60" y="68.7842">age</text><text fill="#D9B8FF" font-family="sans-serif" font-size="14" lengthAdjust="spacing" textLength="66" x="89" y="68.7842">: duration</text><text fill="#D9B8FF" font-family="sans-serif" font-size="14" font-weight="bold" lengthAdjust="spacing" textLength="43" x="60" y="95.0811">atime</text><text fill="#D9B8FF" font-family="sans-serif" font-size="14" lengthAdjust="spacing" textLength="70" x="103" y="95.0811">: datetime</text><text fill="#D9B8FF" font-family="sans-serif" font-size="14" font-weight="bold" lengthAdjust="spacing" textLength="43" x="60" y="121.3779">ctime</text><text fill="#D9B8FF" font-family="sans-serif" font-size="14" lengthAdjust="spacing" textLength="70" x="103" y="121.3779">: datetime</text><text fill="#D9B8FF" font-family="sans-serif" font-size="14" font-weight="bold" lengthAdjust="spacing" textLength="14" x="60" y="147.6748">id</text><text fill="#D9B8FF" font-family="sans-serif" font-size="14" lengthAdjust="spacing" textLength="48" x="74" y="147.6748">: string</text><text fill="#D9B8FF" font-family="sans-serif" font-size="14" font-weight="bold" lengthAdjust="spacing" textLength="33" x="60" y="173.9717">kind</text><text fill="#D9B8FF" font-family="sans-serif" font-size="14" lengthAdjust="spacing" textLength="48" x="93" y="173.9717">: string</text><text fill="#D9B8FF" font-family="sans-serif" font-size="14" font-weight="bold" lengthAdjust="spacing" textLength="90" x="60" y="200.2686">last_access</text><text fill="#D9B8FF" font-family="sans-serif" font-size="14" lengthAdjust="spacing" textLength="66" x="150" y="200.2686">: duration</text><text fill="#D9B8FF" font-family="sans-serif" font-size="14" font-weight="bold" lengthAdjust="spacing" textLength="90" x="60" y="226.5654">last_update</text><text fill="#D9B8FF" font-family="sans-serif" font-size="14" lengthAdjust="spacing" textLength="66" x="150" y="226.5654">: duration</text><text fill="#D9B8FF" font-family="sans-serif" font-size="14" font-weight="bold" lengthAdjust="spacing" textLength="48" x="60" y="252.8623">mtime</text><text fill="#D9B8FF" font-family="sans-serif" font-size="14" lengthAdjust="spacing" textLength="70" x="108" y="252.8623">: datetime</text><text fill="#D9B8FF" font-family="sans-serif" font-size="14" font-weight="bold" lengthAdjust="spacing" textLength="43" x="60" y="279.1592">name</text><text fill="#D9B8FF" font-family="sans-serif" font-size="14" lengthAdjust="spacing" textLength="48" x="103" y="279.1592">: string</text><text fill="#D9B8FF" font-family="sans-serif" font-size="14" font-weight="bold" lengthAdjust="spacing" textLength="34" x="60" y="305.4561">tags</text><text fill="#D9B8FF" font-family="sans-serif" font-size="14" lengthAdjust="spacing" textLength="171" x="94" y="305.4561">: dictionary[string, string]</text></g><!--link aws_iam_group to aws_iam_policy_detail--><g id="link_aws_iam_group_aws_iam_policy_detail"><path codeLine="47" d="M162.5,734.71 C162.5,751.67 162.5,770.73 162.5,788.1 " fill="none" id="aws_iam_group-to-aws_iam_policy_detail" style="stroke:#FFAF37;stroke-width:2.0;"/><polygon fill="#FFAF37" points="162.5,792.92,166.5,783.92,162.5,787.92,158.5,783.92,162.5,792.92" style="stroke:#FFAF37;stroke-width:2.0;"/></g><!--reverse link aws_resource to aws_iam_group--><g id="link_aws_resource_aws_iam_group"><path codeLine="48" d="M105.62,532.63 C117.52,564.1 132.26,603.08 143.75,633.46 " fill="none" id="aws_resource-backto-aws_iam_group" style="stroke:#FFAF37;stroke-width:2.0;"/><polygon fill="none" points="98.79,535.38,98.27,514.2,111.89,530.43,98.79,535.38" style="stroke:#FFAF37;stroke-width:2.0;"/></g><!--reverse link group to aws_iam_group--><g id="link_group_aws_iam_group"><path codeLine="49" d="M227.56,515.3 C214.62,548.69 195.8,597.2 181.73,633.47 " fill="none" id="group-backto-aws_iam_group" style="stroke:#FFAF37;stroke-width:2.0;"/><polygon fill="none" points="221.36,512.95,235.12,496.83,234.41,518.01,221.36,512.95" style="stroke:#FFAF37;stroke-width:2.0;"/></g><!--reverse link resource to aws_resource--><g id="link_resource_aws_resource"><path codeLine="50" d="M118.65,338.45 C109.13,376.45 100.01,412.88 93.59,438.51 " fill="none" id="resource-backto-aws_resource" style="stroke:#FFAF37;stroke-width:2.0;"/><polygon fill="none" points="112.08,336.88,123.73,319.18,125.66,340.28,112.08,336.88" style="stroke:#FFAF37;stroke-width:2.0;"/></g><!--reverse link resource to group--><g id="link_resource_group"><path codeLine="51" d="M207.44,338.31 C219.66,385.91 231.27,431.08 237.58,455.65 " fill="none" id="resource-backto-group" style="stroke:#FFAF37;stroke-width:2.0;"/><polygon fill="none" points="200.46,340.29,202.27,319.18,214.02,336.81,200.46,340.29" style="stroke:#FFAF37;stroke-width:2.0;"/></g><!--SRC=[XPDDRvmm48Rl_0fBkQ4YxIPgDrjLaTALglOIHKblqGhDsWDhBTZ87heY7_-zDeG439kSCEyyC-_COFPI8CEoeeQLMExGsCWUfAh0GCckZT77ZIwqOMTP1jd5AWp-qee-1MwWHFORYtz8aaD8_DrBVb1eBJiVX7u2F-H6rqfqvSc0iYw4YWRKfW1hhucCtDM4WsR4UdUPPI4P5Zsx4ClLDvnWsWWqhyXYiH3BTOXyQlNXt6_4lNn4jXmkxKOJJjgSMBJKXrrwOj3aPD0-VhB7Mn12gfnz7MXtNKz6eHdfztiG-kZf30exjB641ZKr5MucK-7wKcIhMVZFAPZxpJ4usbH2cNgYOazH7BUdjDA5v19j77z_OrgjIGKIoE9XwzWAQEy9wwwDogENeEWeeItUAvhNfRj_FbT8Jb8hCCr3L-OB0zLits7bzdh2nA3LjU7OrWQZPh1-iFvzd9AtbKLjmFVW5PATcm12VtOQdz6a67Z5iLlyM71Ub0BdxcSC7Df8NVbQGQISyGc6ZsE2t9vOM_VSkb77NpL9hkO_IJJQuO_d94d65oBg2in5Pj9wAOor2Vy1]--></g></svg>

<svg xmlns="http://www.w3.org/2000/svg" width="324" height="901" preserveAspectRatio="none" style="width:324px;height:901px"><rect width="303" height="100.383" x="11" y="633.84" fill="#3D176E" rx="2.5" ry="2.5" style="stroke:#000d19;stroke-width:.5"/><circle cx="87.75" cy="653.735" r="11" fill="#ADD1B2" style="stroke:#181818;stroke-width:1"/><path d="M90.719 659.375q-.578.297-1.219.438-.64.156-1.344.156-2.5 0-3.828-1.64-1.312-1.657-1.312-4.782t1.312-4.781q1.328-1.656 3.828-1.656.703 0 1.344.156.656.156 1.219.453v2.719q-.625-.578-1.219-.844-.594-.281-1.219-.281-1.344 0-2.031 1.078-.688 1.062-.688 3.156 0 2.094.688 3.172.688 1.062 2.031 1.062.625 0 1.219-.265.594-.281 1.219-.86v2.72Z"/><text x="113.25" y="659.62" fill="#D9B8FF" font-family="Helvetica" font-size="17" textLength="131">aws_iam_group</text><path d="M12 673.629h301" style="stroke:#000d19;stroke-width:.5"/><text x="22" y="695.624" fill="#D9B8FF" font-family="sans-serif" font-size="14" font-weight="bold" textLength="114">group_policies</text><text x="136" y="695.624" fill="#D9B8FF" font-family="sans-serif" font-size="14" textLength="167">: aws_iam_policy_detail[]</text><text x="22" y="721.921" fill="#D9B8FF" font-family="sans-serif" font-size="14" font-weight="bold" textLength="35">path</text><text x="57" y="721.921" fill="#D9B8FF" font-family="sans-serif" font-size="14" textLength="48">: string</text><rect width="310" height="100.383" x="7.5" y="794.23" fill="#3D176E" rx="2.5" ry="2.5" style="stroke:#000d19;stroke-width:.5"/><circle cx="59.75" cy="814.125" r="11" fill="#ADD1B2" style="stroke:#181818;stroke-width:1"/><path d="M62.719 819.765q-.578.297-1.219.438-.64.156-1.344.156-2.5 0-3.828-1.64-1.312-1.657-1.312-4.782t1.312-4.781q1.328-1.656 3.828-1.656.703 0 1.344.156.656.156 1.219.453v2.719q-.625-.578-1.219-.844-.594-.281-1.219-.281-1.343 0-2.031 1.078-.688 1.062-.688 3.156 0 2.094.688 3.172.688 1.062 2.031 1.062.625 0 1.219-.265.594-.281 1.219-.86v2.72Z"/><text x="85.25" y="820.01" fill="#D9B8FF" font-family="Helvetica" font-size="17" textLength="187">aws_iam_policy_detail</text><path d="M8.5 834.019h308" style="stroke:#000d19;stroke-width:.5"/><text x="18.5" y="856.014" fill="#D9B8FF" font-family="sans-serif" font-size="14" font-weight="bold" textLength="132">policy_document</text><text x="150.5" y="856.014" fill="#D9B8FF" font-family="sans-serif" font-size="14" textLength="156">: dictionary[string, any]</text><text x="18.5" y="882.311" fill="#D9B8FF" font-family="sans-serif" font-size="14" font-weight="bold" textLength="96">policy_name</text><text x="114.5" y="882.311" fill="#D9B8FF" font-family="sans-serif" font-size="14" textLength="48">: string</text><rect width="155" height="74.086" x="7" y="438.76" fill="#3D176E" rx="2.5" ry="2.5" style="stroke:#000d19;stroke-width:.5"/><circle cx="22" cy="458.654" r="11" fill="#ADD1B2" style="stroke:#181818;stroke-width:1"/><path d="M24.969 464.295q-.578.297-1.219.438-.64.156-1.344.156-2.5 0-3.828-1.64-1.312-1.657-1.312-4.782t1.312-4.781q1.328-1.656 3.828-1.656.703 0 1.344.156.656.156 1.219.453v2.719q-.625-.579-1.219-.844-.594-.281-1.219-.281-1.343 0-2.031 1.078-.688 1.062-.688 3.156 0 2.094.688 3.172.688 1.062 2.031 1.062.625 0 1.219-.265.594-.281 1.219-.86v2.72Z"/><text x="41" y="464.54" fill="#D9B8FF" font-family="Helvetica" font-size="17" textLength="113">aws_resource</text><path d="M8 478.549h153" style="stroke:#000d19;stroke-width:.5"/><text x="18" y="500.544" fill="#D9B8FF" font-family="sans-serif" font-size="14" font-weight="bold" textLength="26">arn</text><text x="44" y="500.544" fill="#D9B8FF" font-family="sans-serif" font-size="14" textLength="48">: string</text><rect width="90" height="39.789" x="197.5" y="455.91" fill="#3D176E" rx="2.5" ry="2.5" style="stroke:#000d19;stroke-width:.5"/><circle cx="212.5" cy="475.805" r="11" fill="#ADD1B2" style="stroke:#181818;stroke-width:1"/><path d="M215.469 481.445q-.578.297-1.219.438-.64.156-1.344.156-2.5 0-3.828-1.64-1.312-1.657-1.312-4.782t1.312-4.781q1.328-1.656 3.828-1.656.703 0 1.344.156.656.156 1.219.453v2.719q-.625-.578-1.219-.844-.594-.281-1.219-.281-1.344 0-2.031 1.078-.688 1.062-.688 3.156 0 2.094.688 3.172.688 1.062 2.031 1.062.625 0 1.219-.265.594-.281 1.219-.86v2.72Z"/><text x="231.5" y="481.69" fill="#D9B8FF" font-family="Helvetica" font-size="17" textLength="48">group</text><rect width="227" height="310.758" x="49" y="7" fill="#3D176E" rx="2.5" ry="2.5" style="stroke:#000d19;stroke-width:.5"/><circle cx="117.75" cy="26.895" r="11" fill="#ADD1B2" style="stroke:#181818;stroke-width:1"/><path d="M120.719 32.535q-.578.297-1.219.438-.64.156-1.344.156-2.5 0-3.828-1.64-1.312-1.657-1.312-4.782t1.312-4.781q1.328-1.656 3.828-1.656.703 0 1.344.156.656.156 1.219.453v2.719q-.625-.578-1.219-.844-.594-.281-1.219-.281-1.344 0-2.031 1.078-.688 1.062-.688 3.156 0 2.094.688 3.172.688 1.062 2.031 1.062.625 0 1.219-.265.594-.281 1.219-.86v2.72Z"/><text x="143.25" y="32.78" fill="#D9B8FF" font-family="Helvetica" font-size="17" textLength="71">resource</text><path d="M50 46.789h225" style="stroke:#000d19;stroke-width:.5"/><text x="60" y="68.784" fill="#D9B8FF" font-family="sans-serif" font-size="14" font-weight="bold" textLength="29">age</text><text x="89" y="68.784" fill="#D9B8FF" font-family="sans-serif" font-size="14" textLength="66">: duration</text><text x="60" y="95.081" fill="#D9B8FF" font-family="sans-serif" font-size="14" font-weight="bold" textLength="43">atime</text><text x="103" y="95.081" fill="#D9B8FF" font-family="sans-serif" font-size="14" textLength="70">: datetime</text><text x="60" y="121.378" fill="#D9B8FF" font-family="sans-serif" font-size="14" font-weight="bold" textLength="43">ctime</text><text x="103" y="121.378" fill="#D9B8FF" font-family="sans-serif" font-size="14" textLength="70">: datetime</text><text x="60" y="147.675" fill="#D9B8FF" font-family="sans-serif" font-size="14" font-weight="bold" textLength="14">id</text><text x="74" y="147.675" fill="#D9B8FF" font-family="sans-serif" font-size="14" textLength="48">: string</text><text x="60" y="173.972" fill="#D9B8FF" font-family="sans-serif" font-size="14" font-weight="bold" textLength="33">kind</text><text x="93" y="173.972" fill="#D9B8FF" font-family="sans-serif" font-size="14" textLength="48">: string</text><text x="60" y="200.269" fill="#D9B8FF" font-family="sans-serif" font-size="14" font-weight="bold" textLength="90">last_access</text><text x="150" y="200.269" fill="#D9B8FF" font-family="sans-serif" font-size="14" textLength="66">: duration</text><text x="60" y="226.565" fill="#D9B8FF" font-family="sans-serif" font-size="14" font-weight="bold" textLength="90">last_update</text><text x="150" y="226.565" fill="#D9B8FF" font-family="sans-serif" font-size="14" textLength="66">: duration</text><text x="60" y="252.862" fill="#D9B8FF" font-family="sans-serif" font-size="14" font-weight="bold" textLength="48">mtime</text><text x="108" y="252.862" fill="#D9B8FF" font-family="sans-serif" font-size="14" textLength="70">: datetime</text><text x="60" y="279.159" fill="#D9B8FF" font-family="sans-serif" font-size="14" font-weight="bold" textLength="43">name</text><text x="103" y="279.159" fill="#D9B8FF" font-family="sans-serif" font-size="14" textLength="48">: string</text><text x="60" y="305.456" fill="#D9B8FF" font-family="sans-serif" font-size="14" font-weight="bold" textLength="34">tags</text><text x="94" y="305.456" fill="#D9B8FF" font-family="sans-serif" font-size="14" textLength="171">: dictionary[string, string]</text><path fill="none" d="M162.5 734.71v53.39" style="stroke:#ffaf37;stroke-width:2"/><path fill="#FFAF37" d="m162.5 792.92 4-9-4 4-4-4 4 9z" style="stroke:#ffaf37;stroke-width:2"/><g fill="none"><path d="M105.62 532.63c11.9 31.47 26.64 70.45 38.13 100.83" style="stroke:#ffaf37;stroke-width:2"/><path d="m98.79 535.38-.52-21.18 13.62 16.23-13.1 4.95z" style="stroke:#ffaf37;stroke-width:2"/></g><g fill="none"><path d="M227.56 515.3c-12.94 33.39-31.76 81.9-45.83 118.17" style="stroke:#ffaf37;stroke-width:2"/><path d="m221.36 512.95 13.76-16.12-.71 21.18-13.05-5.06z" style="stroke:#ffaf37;stroke-width:2"/></g><g fill="none"><path d="M118.65 338.45c-9.52 38-18.64 74.43-25.06 100.06" style="stroke:#ffaf37;stroke-width:2"/><path d="m112.08 336.88 11.65-17.7 1.93 21.1-13.58-3.4z" style="stroke:#ffaf37;stroke-width:2"/></g><g fill="none"><path d="M207.44 338.31c12.22 47.6 23.83 92.77 30.14 117.34" style="stroke:#ffaf37;stroke-width:2"/><path d="m200.46 340.29 1.81-21.11 11.75 17.63-13.56 3.48z" style="stroke:#ffaf37;stroke-width:2"/></g></svg>
